X:1
T:Goin' Back to Carolina
M:4/4
L:1/4
K:F
 C/2C/2| C3/2 C/2 C C| D/2 F3/2 F G| A3/2 G/2 F D| C3 F/2D/2| C3/2 C/2 C C|\
 D/2 F3/2(2A15.9999925000037/23.999988000006A15.9999925000037/23.999988000006G15.9999925000037/23.999988000006 F15.9999925000037/23.999988000006|\
 G2 G A| G2 A c| c c c3/2 d/2| c/2 A3/2 F G| A G F D| C2 C15.9999925000037/23.999988000006 C15.9999925000037/23.999988000006 D15.9999925000037/23.999988000006|\
 F3/2 F/2 F G| A/2 F3/2 D C| D2 F G| F2 z||
